X: 224
T: Waltz
O: No 224 Wm Clarke of Feltwell Ms 
M: 3/4
N: bar missing between Bar 3 & 4.
L: 1/8
K: C
G2|cBcdef|g2g2e2|a2a2f2|g2g2e2|cBcdef|g2g2g2|abc'bc'a|g4:||;/
e2|f2a2f2|e2g2e2| d2d2d2|e2c2e2|f2a2f2|e2g2e2|d2d2d2|c4:||]

